!!!COM: Jules Massenet
!!!CNT: Francais
!!!TXO: Francais
!!!OTL: "Aubade"
!!!LYR: Pre/vost
!!!OPR: 
!!!OPS: Op. 
!!!ONM: No.
!!!ENC: Emily Thomas
!!!YOR: CD Sheet Music French Art Songs, The Ultimate Collection
!!!YOR: CD Sheet Music, LLC 2003
!!!ODT: 1877/
!!NB: Vocal melody and text encoded.
**kern	**silbe
=1	=1
*clefG2	*
*k[f#]	*
*M4/4	*
*MM[Allegro moderato.]	*
1r	.
=2	=2
1r	.
=3	=3
1r	.
=4	=4
1r	.
=5	=5
8r	.
{8g	{Le
[4g	jour
8g]	|
8g	par-
8a	-ai^t
8g	a\
=6	=6
8b	l'hor-
8cc	-i-
2.dd}	-zon;}
=7	=7
{8dd	{On
8ee	en-
8dd	-tend
8b	cour-
4a	-ir
8g	des
8f#	bruits
=8	=8
2b	d'ai-
2a}	-le;}
=9	=9
8r	.
{8a	{Je
[4a	vois
8a]	|
8a	ve-
8b	-nir
8a	sur
=10	=10
8cc	ta
8dd	mai-
[2.ee	-son
=11	=11
8ee]	|
8ee	L'es-
8dd	-sain
8cc	des
8b	jeu-
8g	-nes
8a	hi-
8b	-ron-
=12	=12
2d	-del-
[2g	-les.
=13	=13
2g_	|
4g]}	|}
4r	.
=14	=14
{8a	{Che\-
8b	-re
2a	blonde,
8g	il
8b	est
=15	=15
8a	temps
8f	d'ou-
2dd	-vrir
8cc#	Ta
8b	fe-
=16	=16
4a	-ne^tre
8f#	au
8g	par-
4a	-fum
4ee	des
=17	=17
2ee	ro-
2dd}	-sesÖ}
=18	=18
4r	.
{4dd	{Ton
4ccn	a^me
4b	aus-
=19	=19
8ee	-si
8dd	va
8cc	re-
8b	-fleur-
2dd}	-ir}
=20	=20
{4e	{A-
4a	-vec
4cc	les
4ee	per-
=21	=21
2gg	-ven-
4b	-ches
4ee	e/-
=22	=22
[1dd	-clo-
=23	=23
2dd]	|
4g}	-ses!..}
4r	.
=24	=24
{4.g	{Vois
8g	pas-
4g	-ser
4a	les
=25	=25
4g	re\-
8b	-ves
8cc	ai-
2dd}	-le/s}
=26	=26
{8dd	{Fred-
8ee	-on-
4dd	-nant
8dd	leurs
8a	chan-
8g	-sons
8f#	joy-
=27	=27
2b	-eu-
2a}	-sesÖ}
=28	=28
{4a	{Et,
8a	sous
8b	leurs
4.a	fronts
8a	de-
=29	=29
8cc	-mi
8dd	voi-
[2.ee	-le/s,
=30	=30
8ee]	|
8ee	Les
8dd	fleurs
8cc	d'Av-
8b	-ril
8g	in-
8a	-sou-
8b	-ci-
=31	=31
2d	-eu-
[2g	-ses.
=32	=32
2g_	|
4g]}	|}
4r	.
=33	=33
4r	.
{8a	{Il
8b	ne
8a	faut
8g	ai-
4b	-mer
=34	=34
8a	qu'u-
8f#	-ne
4dd}	fois;}
4r	.
{8cc#	{Le
8b	blu-
=35	=35
4.a	-et
8a	te
4a	dit:
8a	sois
8ee	fi-
=36	=36
2ee	-de\-
2dd}	-le;}
=37	=37
4r	.
{4dd	{Et
4ccn	sur
4b	sa
=38	=38
8ee	ti-
8dd	-ge,
8cc	l'as-
8b	-pho-
2dd	-de\-
=39	=39
8e}	-le}
8r	.
{4a	{Te
8cc}	dit:}
8r	.
{4ee	{sois
=40	=40
2ee	pu-
8ee	-re,
8r	.
4ee	es-
=41	=41
1gg	-pe\-
=42	=42
2dd}	-re,}
4r	.
{4ee	{es-
=43	=43
2.dd	-pe\re
4dd	et
=44	=44
[1gg	crois!
=45	=45
2gg_	|
8gg]}	|}
8r	.
4r	.
=46	=46
*k[]	*
*M3/4	*
*MM[Andte cantabile sostenuto.]	*
2.r	.
=47	=47
{4g	{Le
4g#	prin-
4a	-temps
=48	=48
8.cc	va
16cc	re-
4b	-nai^-
4a}	-tre}
=49	=49
{8g	{et
8e	la
4ee	ter-
8.ee	-re
16ee	s'e/-
=50	=50
4ee	-veil-
4dd}	-le;}
4r	.
=51	=51
{8.dd	{Une
16b	e/-
2cc	-toile
=52	=52
8.b	au
16g	ciel
2a}	bleu,}
=53	=53
{8.g	{la
16d	der-
4f	-nie\-
8f	-re
8f	qui
=54	=54
4f	veil-
[4e	-le,
8e]}	|}
8r	.
=55	=55
{4e	{Semble
8e	un
8a	pre-
8b	-mier
8cc	sou-
=56	=56
4a	-rire
4dd	|
4cc	aux
=57	=57
4.b	le\-
8b	-vres
8b	d'un
8b	a-
=58	=58
2cc}	-manl.}
4r	.
=59	=59
{4g	{La
4g#	bri-
4a	-se
=60	=60
8.cc	du
16cc	ma-
4b	-tin
4a	sou-
=61	=61
4g	-pi-
8ee	|
8ee	-re
8ee	dou-
8ee	-ce-
=62	=62
4ee	-ment.
4dd}	|}
8r	.
{8dd	{Sa-
=63	=63
8ee-	-lut
8b-	a\
8.cc	toi,
16b-	prin-
8a-}	-temps!}
16r	.
{16ee-	{Sa-
=64	=64
8ee-	-lut
8b-	a\
8.cc	toi,
16b-	lu-
8a-	-mie\-
8a-}	-re!}
=65	=65
8r	.
{8ee-	{Ma
8ff	bel-
8ee-	-le
8dd	fi-
8cc	-an-
=66	=66
8b-	-ce/e,
8gg	en-
8ff	tr'ou-
8ee-	-vre
8e-	ta
8g	pau-
=67	=67
*k[f#]	*
*M4/4	*
*MM[All. Premiere Tempo.]	*
[1b-	-pie\-
=68	=68
2b-]	|
4b-}	-re!}
4r	.
=69	=69
8r	.
{8g	{Le
[4g	jour
8g]	|
8g	par-
8a	-ai^t
8g	a\
=70	=70
8bn	l'ho-
8ccn	-ri-
2.dd}	-zon.}
=71	=71
{8dd	{On
8ee	en-
8dd	-tend
8b	cou-
4a	-rir
8g	des
8f#	bruits
=72	=72
2b	d'ai-
2a}	-le;}
=73	=73
8r	.
{8a	{Je
[4a	vois
8a]	|
8a	ve-
8b	-nir
8a	sur
=74	=74
8cc	ta
8dd	mai-
[2.ee	-son
=75	=75
8ee]	|
8ee	L'es-
8dd	-saim
8cc	des
8b	jeu-
8g	-nes
8a	hi-
8b	-ron-
=76	=76
2d	-del-
[2g	-lesÖ
=77	=77
2g_	|
4g]}	|}
4r	.
=78	=78
{8a	{Che\-
8b	-re
2a	blonde,
8g	il
8b	est
=79	=79
8a	temps
8f#	d'ou-
2dd	-vrir
8cc#	Ta
8b	fe-
=80	=80
4a	-ne^tre
8f#	au
8g	par-
4a	-fum
4ee	des
=81	=81
2ee	ro-
2dd}	-sesÖ}
=82	=82
4r	.
{4dd	{Ton
4ccn	a^me
4b	aus-
=83	=83
8ee	-si
8dd	va
8cc	re-
8b	-fleu-
2dd}	-rir}
=84	=84
{4e	{A-
4a	-vec
4cc	les
4ee	per-
=85	=85
2gg	-ven-
4b	-ches
4ee	e/-
=86	=86
[1dd	-clo-
=87	=87
2dd]	|
2g}	-ses!..}
=88	=8
4r	.
{4ee	{Sa-
4dd	-lut
4cc	a\
=89	=89
4.b	toi,
8cc	prin-
2dd}	-temps!}
=90	=90
4r	.
{4ee	{Sa-
4dd	-lut
4cc	a\
=91	=91
4.b	toi,
8dd	lum-
4ffn	-ie\-
4ffn}	-re!}
=92	=92
4r	.
{4ee	{Sa-
[2ee	-lut,
=93	=93
2ee]}	|}
4r	.
{4ee	{lu-
=94	=94
1gg	-mie\-
=95	=95
[2b	-re!
4b]}	|}
8r	.
{8ee	{Prin-
=96	=96
[1dd	-temps!
=97	=97
2dd_	|
4dd]}	|}
8r	.
{8dd	{Sa-
=98	=98
[1gg	-lut!
=99	=99
1gg_	|
=100	=100
4gg]}	|}
4r	.
2r	.
==	==
*-	*-
